web/packages/design/src/ResourceIcon/assets/googlecloudprovider.svg

<svg width="72" height="72" viewBox="0 0 72 72" fill="none" xmlns="http://www.w3.org/2000/svg">
<g clip-path="url(#clip0_6706_29779)">
<path d="M45.8438 22.7812L48.1062 22.8726L54.2602 16.7693L54.5625 14.0625C51.0371 10.9765 46.7766 8.94827 42.1835 7.94929C37.5904 6.95032 32.8164 7.1291 28.3123 8.46875C23.8083 9.8084 19.7229 12.2647 16.4422 15.6056C13.1615 18.9465 10.7937 23.0617 9.5625 27.5625C10.2481 27.2838 11.0075 27.2386 11.7218 27.434L24.0299 25.421C24.0299 25.421 24.4261 24.6858 24.75 24.75C27.3872 21.8775 31.2618 19.8207 35.1676 19.5261C39.0735 19.2315 42.7988 20.3373 45.8438 22.7812Z" fill="#EA4335"/>
<path d="M63.0578 27.6963C61.6192 22.4255 58.6656 17.6871 54.5594 14.0625L45.8438 22.7812C47.6744 24.2695 49.0732 26.1729 50.0661 28.3075C51.0589 30.4422 51.5516 32.7733 51.507 35.125V36.6763C52.5336 36.6763 53.5502 36.8775 54.4987 37.2684C55.4471 37.6593 56.309 38.2323 57.0349 38.9545C57.7608 39.6768 58.3367 40.5343 58.7296 41.478C59.1224 42.4217 59.3246 43.4332 59.3246 44.4546C59.3246 45.4761 59.1224 46.4875 58.7296 47.4312C58.3367 48.3749 57.7608 49.2324 57.0349 49.9547C56.309 50.677 55.4471 51.2499 54.4987 51.6408C53.5502 52.0317 52.5336 52.2329 51.507 52.2329L35.7188 52.3125L34.3125 53.806V63.1356L35.7188 64.6869L51.507 64.6869C55.8731 64.7207 60.1342 63.3554 63.66 60.7929C67.1857 58.2304 69.7889 54.6068 71.0843 50.4582C72.3798 46.3095 72.2988 41.8562 70.8532 37.7569C69.4077 33.6577 66.6745 30.1302 63.0578 27.6963Z" fill="#4285F4"/>
<path d="M20.2148 64.6872L35.7188 64.6875V52.3125L20.2148 52.1714C19.1009 52.1711 18.1695 51.9315 17.1562 51.4688L14.7907 52.1494L8.48827 58.4073L7.875 60.75C11.4093 63.4185 15.7861 64.7064 20.2148 64.6872Z" fill="#34A853"/>
<path d="M20.2134 24.1032C15.9769 24.1285 11.8541 25.4762 8.4209 27.958C4.98766 30.4399 2.41538 33.932 1.06334 37.9466C-0.288692 41.9611 -0.352967 46.2977 0.879497 50.3506C2.11196 54.4035 4.51682 58.1676 7.875 60.7501L17.1562 51.4689C16.0037 50.9482 14.8457 50.1711 14.0668 49.1748C13.2879 48.1786 12.7624 47.0082 12.5353 45.7642C12.3082 44.5201 12.3864 43.2396 12.7631 42.0324C13.1398 40.8252 13.8037 39.7275 14.698 38.8333C15.5923 37.9391 16.6902 37.2752 17.8975 36.8985C19.1048 36.5219 20.3855 36.4437 21.6296 36.6708C22.8738 36.8978 24.0443 37.4233 25.0407 38.2021C26.037 38.9809 26.8296 39.9898 27.3503 41.1422L36.4197 32.0738C34.5161 29.5854 32.0627 27.5711 29.2512 26.1884C26.4398 24.8057 23.3465 24.092 20.2134 24.1032Z" fill="#FBBC05"/>
</g>
<defs>
<clipPath id="clip0_6706_29779">
<rect width="72" height="72" fill="white"/>
</clipPath>
</defs>
</svg>

<svg xmlns="http://www.w3.org/2000/svg" width="72" height="72" fill="none" viewBox="0 0 72 72"><g clip-path="url(#a)"><path fill="#ea4335" d="m45.844 22.781 2.262.092 6.154-6.104.303-2.706c-3.526-3.087-7.786-5.115-12.38-6.114a27.9 27.9 0 0 0-13.87.52 27.7 27.7 0 0 0-11.87 7.137 27.4 27.4 0 0 0-6.88 11.957 3.37 3.37 0 0 1 2.159-.129l12.308-2.013s.396-.735.72-.671c2.637-2.872 6.512-4.93 10.418-5.224s7.63.811 10.676 3.255"/><path fill="#4285f4" d="M63.058 27.696a28.03 28.03 0 0 0-8.499-13.634l-8.715 8.72c1.83 1.488 3.23 3.39 4.222 5.526a15.5 15.5 0 0 1 1.441 6.817v1.551a7.85 7.85 0 0 1 5.528 2.279 7.746 7.746 0 0 1 0 11 7.85 7.85 0 0 1-5.528 2.278l-15.788.08-1.407 1.493v9.33l1.407 1.55h15.788a20.4 20.4 0 0 0 12.153-3.893 20.24 20.24 0 0 0 7.424-10.335 20.14 20.14 0 0 0-.23-12.701 20.25 20.25 0 0 0-7.796-10.06"/><path fill="#34a853" d="M20.215 64.687h15.504V52.314l-15.504-.142c-1.114 0-2.046-.24-3.059-.702l-2.365.68-6.303 6.258-.613 2.343c3.534 2.669 7.911 3.956 12.34 3.937"/><path fill="#fbbc05" d="M20.213 24.103a20.34 20.34 0 0 0-19.15 13.844A20.33 20.33 0 0 0 .88 50.35c1.233 4.053 3.638 7.817 6.996 10.4l9.281-9.282c-1.152-.52-2.31-1.298-3.09-2.294a7.816 7.816 0 0 1 10.975-10.973 7.8 7.8 0 0 1 2.31 2.94l9.069-9.068a20.31 20.31 0 0 0-16.207-7.97"/></g><defs><clipPath id="a"><path fill="#fff" d="M0 0h72v72H0z"/></clipPath></defs></svg>
